X:1
T:Litany of the BVM - Aichinger
T:#
%%score { 1 | 2 } 3
L:1/8
Q:1/4=180
M:none
K:F
V:1 treble nm="Soprano I" snm="S"
V:2 treble 
V:3 treble-8 nm="Tenor" snm="T"
V:1
"^Litany of the Blessed Virgin Mary""^Gregor Aichinger\n (1564-1628)" G12 A4 | B4 c4 d4 (G4 | %2
w: Ky- ri-|e e- lei\- *|
w: ||
w: ||
 d12 e4 | ^f4 g6 fe f4) | !fermata!g16 ||[M:4/2] z16 | (g12 f4 | e4 d4) c4 f4 | e8 !fermata!d16 || %9
w: ||son.||Chri\- *|* * ste e-|lei- son.|
w: |||||||
w: |||||||
 d6 e2 f4 d4 | (c4 d4 B4 c4) | (d4 c2 B2 A2 G2 G4- | G4 ^F4) !fermata!G16 || B12 B4 | %14
w: Ky- ri- e e-|lei\- * * *||* * son.|Chri- ste|
w: |||||
w: |||||
 B4 c4 !fermata!A16 || G8 G4 F4 | G4 G4 !fermata!^F16 ||[Q:1/4=90][Q:1/4=90] x20 | %18
w: au- di nos.|Chri- ste ex-|au- di nos.||
w: ||||
w: ||||
[Q:1/4=180][Q:1/4=180] d8 e4 f4- | f4 g4 e8 | d16 ||[Q:1/4=90][Q:1/4=90] x20 | %22
w: Mi- se- re\-|* re no-|bis.||
w: ||||
w: ||||
[Q:1/4=180]"^Response 1"[Q:1/4=180] z8 z4 g4 | e4 f4 e8 | !fermata!d16 ||[Q:1/4=90][Q:1/4=90] x20 | %26
w: O-|ra pro no-|bis.||
w: ||||
w: ||||
[Q:1/4=180]"^Response 2"[Q:1/4=180] z8 z4 c4 | A4 B4 A8 | !fermata!G16 ||[Q:1/4=90][Q:1/4=90] x20 | %30
w: O-|ra pro no-|bis.||
w: ||||
w: ||||
[Q:1/4=180]"^Response 1"[Q:1/4=180] z8 z4 g4 | e4 f4 e8 | !fermata!d16 ||[Q:1/4=90][Q:1/4=90] x20 | %34
w: O-|ra pro no-|bis.||
w: ||||
w: ||||
[Q:1/4=180]"^Response 2"[Q:1/4=180] z8 z4 c4 | A4 B4 A8 | !fermata!G16 ||[Q:1/4=90][Q:1/4=90] x20 | %38
w: O-|ra pro no-|bis.||
w: ||||
w: ||||
[Q:1/4=180]"^Response 1"[Q:1/4=180] z8 z4 g4 | e4 f4 e8 | !fermata!d16 ||[Q:1/4=90][Q:1/4=90] x20 | %42
w: O-|ra pro no-|bis.||
w: ||||
w: ||||
[Q:1/4=180]"^Response 2"[Q:1/4=180] z8 z4 c4 | A4 B4 A8 | !fermata!G16 ||[Q:1/4=90][Q:1/4=90] x14 | %46
w: O-|ra pro no-|bis.||
w: ||||
w: ||||
[Q:1/4=180][Q:1/4=180] d8 f8 | c4 d4 (_e6 dc | B4) c4 (d6 cB) |[M:4/2] (A4 B8 A4) | B8 z8 | %51
w: Qui tol-|lis pec- ca\- * *|* ta mun\- * *|||
w: ||||di,|
w: |||||
 c12 B4 | A4 G4 G4 ^F4 | G16 |] %54
w: par- ce|no- bis Do- mi-|ne.|
w: ex- au-|di nos Do- mi-|ne.|
w: mi- se-|re- re no\- *|bis.|
V:2
 z8 G8- | G4 A4 B8- | B4 (c4 d4 c2 B2 | A4 B4) A8 | !fermata!G16 ||[M:4/2] (d12 c4 | %6
w: Ky-|* ri- e|* e\- * * *|* * lei-|son.|Chri\- *|
w: ||||||
w: ||||||
w: ||||||
w: ||||||
w: ||||||
w: ||||||
w: ||||||
 B4 A4) G4 A4- | A4 f4 e4 (d4- | d2 ^c=B c4) !fermata!d16 || z16 | z8 G6 A2 | B4 G4 ^F4 G4 | %12
w: * * ste e\-|* * * lei\-|* * * * son.||Ky- ri-|e e\- * *|
w: ||||||
w: ||||||
w: ||||||
w: ||||||
w: ||||||
w: ||||||
w: ||||||
 A8 !fermata!G16 || G12 F4 | G4 G4 !fermata!^F16 || B8 B4 B4 | B4 c4 !fermata!A16 || %17
w: lei- son.|Chri- ste|au- di nos.|Chri- ste ex-|au- di nos.|
w: |||||
w: |||||
w: |||||
w: |||||
w: |||||
w: |||||
w: |||||
[I:staff -1] B16 c2 d2 |[I:staff +1] B12 c4 | d4 d8 ^c4 | d16 ||[I:staff -1] B16 c2 d2 | %22
w: Pater~de~coelis De- us,|Mi- se-|re- re no-|bis.|Sancta~Ma- ri- a,~~~~~~(R1)|
w: Fili~Redemptor~mundi De- us,||||Sancta~Dei~Ge- ni- trix,~~~(R2)|
w: Spiritus~sancte De- us,||||Sancta~Virgo~vir- gi- num,~(R1)|
w: SanctaTrinitas~unus De- us,||||Mater Chri- sti,~~~~(R2)|
w: ||||Mater~divinae~gra- ti- ae,~~~~(R1)|
w: ||||Mater~puris- si- ma,~~(R2)|
w: ||||Mater~castis- si- ma,~~(R1)|
w: ||||Mater~invio- la- ta,~~~~(R2)|
[I:staff +1] z4 A4 d4 B4 | (^c4 d8 c4) | !fermata!d16 ||[I:staff -1] B16 c2 d2 | %26
w: O- ra pro|no\- * *|bis.|Mater~inteme- ra- ta,~~~(R1)|
w: |||Mater~ama- bi- lis,~~(R2)|
w: |||Mater~admira- bi- lis,~~(R1)|
w: |||Mater~Crea- to- ris,~~(R2)|
w: |||Mater~Salva- to- ris,~~(R1)|
w: |||Virgo~prudentis- si- ma,~(R2)|
w: |||Virgo~vene- ran- da,~~(R1)|
w: |||Virgo~prædi- can- da,~~(R2)|
[I:staff +1] z4 B4 G6 A2 | (^F4 G8 F4) | !fermata!G16 ||[I:staff -1] B16 c2 d2 | %30
w: O- ra pro|no\- * *|bis.|Virgo po- tens,~~~(R1)|
w: |||Virgo cle- mens,~(R2)|
w: |||Virgo~fi- de- lis,~~~~~(R1)|
w: |||Speculum~iusti- ti- æ,~~~~~(R2)|
w: |||Sedes~sapien- ti- æ,~~~~~(R1)|
w: |||Causa~nostræ~læti- ti- æ,~~~~~(R2)|
w: |||Vas~spiritu- a- le,~~~~(R1)|
w: |||Vas~honor- bi- le,~~~~(R2)|
[I:staff +1] z4 A4 d4 B4 | (^c4 d8 c4) | !fermata!d16 ||[I:staff -1] B16 c2 d2 | %34
w: O- ra pro|no\- * *|bis.|Vas~insigne~devoti- o- nis,~~(R1)|
w: |||Rosa~my- sti- ca,~~(R2)|
w: |||Turris~Davi- di- ca,~~(R1)|
w: |||Turris~ebur- ne- a,~~~(R2)|
w: |||Domus~au- re- a,~~~(R1)|
w: |||Foederis ar- ca,~(R2)|
w: |||Ianua coe- li,~~~(R1)|
w: |||Stella~matu- ti- na,~(R2)|
[I:staff +1] z4 B4 G6 A2 | (^F4 G8 F4) | !fermata!G16 ||[I:staff -1] B16 c2 d2 | %38
w: O- ra pro|no\- * *|bis.|Salus~infir- mo- rum,~~(R1)|
w: |||Refugium~pecca- to- rum,~~(R2)|
w: |||Consolatrix~affli- cto- rum,~~(R1)|
w: |||Auxilium~Christia- no- rum,~~(R2)|
w: |||Regina~Ange- lo- rum,~~(R1)|
w: |||Regina~Patriar- cha- rum,~~(R2)|
w: |||Regina~Prophe- ta- rum,~~(R1)|
w: |||Regina~Aposto- lo- rum,~~(R2)|
[I:staff +1] z4 A4 d4 B4 | (^c4 d8 c4) | !fermata!d16 ||[I:staff -1] B16 c2 d2 | %42
w: O- ra pro|no\- * *|bis.|Regina~Mar- ty- rum,~~(R1)|
w: |||Regina~Confes- so- rum,~~(R2)|
w: |||Regina~Vir- gi- num,~(R1)|
w: |||Regina~Sanctorum~o- mni- um,~~~(R2)|
w: ||||
w: ||||
w: ||||
w: ||||
[I:staff +1] z4 B4 G6 A2 | (^F4 G8 F4) | !fermata!G16 ||[I:staff -1] B2 B2 (c2 B2 c2) d4 | %46
w: O- ra pro|no\- * *|bis.|A- gnus De\- * * i,|
w: |||A- gnus De\- * * i,|
w: |||A- gnus De\- * * i,|
w: ||||
w: ||||
w: ||||
w: ||||
w: ||||
[I:staff +1] z16 | A8 c8 | G6 A2 B4 d4 |[M:4/2] (c4 B4 c8) | d4 B8 A4 | A4 G4 (F4 G4 | %52
w: |Qui tol-|lis pec- ca- ta||* par- ce|no- bis Do\- *|
w: |||mun\- * *|di, ex- au-|di nos Do\- *|
w: ||||* mi- se-|re- re no\- *|
w: ||||||
w: ||||||
w: ||||||
w: ||||||
w: ||||||
 A4 B4 (A6) A2) | G16 |] %54
w: * * * mi-|ne.|
w: * * * mi-|ne.|
w: |bis.|
w: ||
w: ||
w: ||
w: ||
w: ||
V:3
 z16 | z8 G8- | G4 A4 B4 c4 | (d4 G4 d8) | !fermata!G16 ||[M:4/2][K:treble-8] z8 (g8- | %6
w: |Ky\-|* ri- e e-|lei\- * *|son.|Chri\-|
w: ||||||
w: ||||||
 g4 f4 e4 d4) | c4 d4 A8- | A8 !fermata!d16 || z8 (d6 e2 | f4) d4 _e4 c4 | (B4 c4 d8- | %12
w: |ste e- lei\-|* son.|Ky\- *|* ri- e e-|lei\- * *|
w: ||||||
w: ||||||
 d8) !fermata!G16 || _e12 f4 | _e4 c4 !fermata!d16 || _e8 e4 d4 | _e4 c4 !fermata!d16 || z20 | %18
w: * son.|Chri- ste|au- di nos.|Chri- ste ex-|au- di nos.||
w: ||||||
w: ||||||
 G12 A4 | B4 G4 A8 | d16 || z20 | d8 G4 G4 | A16 | !fermata!d16 || z20 | g8 _e4 c4 | d16 | %28
w: Mi- se-|re- re no-|bis.||O- ra pro|no-|bis.||O- ra pro|no-|
w: ||||||||||
w: ||||||||||
 !fermata!G16 || z20 | d8 G4 G4 | A16 | !fermata!d16 || z20 | g8 _e4 c4 | d16 | !fermata!G16 || %37
w: bis.||O- ra pro|no-|bis.||O- ra pro|no-|bis.|
w: |||||||||
w: |||||||||
 z20 | d8 G4 G4 | A16 | !fermata!d16 || z20 | g8 _e4 c4 | d16 | !fermata!G16 || z14 | z8 d8 | %47
w: |O- ra pro|no-|bis.||O- ra pro|no-|bis.||Qui|
w: ||||||||||
w: ||||||||||
 f8 c4 c4 | (_e6 dc B8) |[M:4/2][K:treble-8] f8 F8 | B8 f8- | f4 e4 d4 G4 | (d12 d4) | G16 |] %54
w: tol- lis pec-|ca\- * * *||* par\-|* ce no- bis|Do- mi-|ne.|
w: ||ta mun-|di, ex\-|* au- di nos|Do- mi-|ne.|
w: |||* mi\-|* se- re- re|no\- *|bis.|

